!!!OTL: AUF DIESER WELT HAB ICH KEIN FREUD
!!!ARE: Europa, Mitteleuropa, Deutschland, West -; Mitteldeutschland
!!!SCT: E0569
!!!YEM: Copyright 1995, estate of Helmut Schaffrath.
**kern
*ICvox
*Ivox
*M3/4
*k[b-e-]
*B-:
{4f
=1
8b-
16a
16g
4f
4g
=2
8f
16f
16e-
8d}
{8f
8b-
8cc
=3
4dd
4dd
8cc
8cc
=4
4b-
8r}
{8b-
8b-
8b-
=5
4g
8e-
8cc
8cc
8cc
=6
4a
8f}
{8f
8b-
8cc
=7
4dd
4dd
8cc
8cc
=8
4b-
4r}
==
!!!AGN: Liebes - Lied, Trennung
!!!ONB: ESAC (Essen Associative Code) Database: ERK1
!!!AMT: simple triple
!!!AIN: vox
!!!EED: Helmut Schaffrath
!!!EEV: 1.0
*-
